X:868
T:Rose of Sharon
C:J C Pepusch, 1731
S:Colin Hume's website,  colinhume.com  - chords can also be printed below the stave.
Q:1/2=100
%%MIDI program 71     Clarinet
%%MIDI chordprog 45   Pizzicato Strings
%%MIDI bassprog 45    Pizzicato Strings
%%MIDI gchord fHfI
N:Originally in Cm, in 2/4, with different chords.
M:2/2
R:Reel
L:1/4
K:Am
|: e | "Am"eA AB | "F"c2 "G"B2 | "Am"A3d | "G"dG GA | "Em"B2 "D/F#"A2 | "G"G3B |\
"Am"AG ^FE | "Em/B"G2 "B7"^F2 | "Em"E3 :|
P:B
|: e | "C"ec "F"fe | "G"dB "Em"e2 | "Am"eA "Dm"d2 | "E7"d^G "Am"A2 |\
"Am"cd e3/f/ | "/E"ed "Dm"cB | "E7"B3A | "Am"A3 :|

